X: 4
T: Bean Setting
O: England
R: jig, slide
Z: 2014 John Chambers <jc:trillian.mit.edu>
S: handwritten MS by John Chambers (1970s)
N: The last bar has an extra beat.
M: 6/16
L: 1/16
K: G
|: "G"G3 G2A | B3 B3 | "D7"A2B cBA | "G"G2A B3 | G3 G2A | B3 B3 | "D7"A2B cBA | "G"G6 :|
|: "G"B>AG B>AG | Bd2- d2B | "D7"A>BA A2B | "C"c2d e>dc | "G"B>AG BdB | "D7"ABc def "G"g3 :|


